packages/icons/svg/16/BookmarkOff.svg

<svg width="16" height="16" viewBox="0 0 16 16" fill="none" xmlns="http://www.w3.org/2000/svg">
<path fill-rule="evenodd" clip-rule="evenodd" d="M8 11.5L13 14V4C13 2.89543 12.1046 2 11 2H5C3.89543 2 3 2.89543 3 4V14L8 11.5ZM4 12.382L8 10.382L12 12.382V4C12 3.44772 11.5523 3 11 3H5C4.44772 3 4 3.44772 4 4V12.382Z" fill="#858585"/>
</svg>

<svg width="16" height="16" fill="none" xmlns="http://www.w3.org/2000/svg" viewBox="0 0 16 16"><path fill-rule="evenodd" clip-rule="evenodd" d="M8 11.5l5 2.5V4a2 2 0 00-2-2H5a2 2 0 00-2 2v10l5-2.5zm-4 .882l4-2 4 2V4a1 1 0 00-1-1H5a1 1 0 00-1 1v8.382z" fill="currentColor"></path></svg>
